public/svg/logos/eiffels_ai.svg

<svg width="101" height="30" viewBox="0 0 101 30" fill="none" xmlns="http://www.w3.org/2000/svg">
<path d="M23.2487 18.4038C24.5013 19.5319 25.7961 20.5427 27.2233 21.375C27.7814 21.7004 27.7752 21.7087 27.4449 22.2824C27.1539 22.7879 26.8466 23.2854 26.5828 23.805C26.3977 24.1696 26.196 24.1859 25.8841 23.9742C25.3756 23.6291 24.8354 23.3301 24.3379 22.9704C21.8905 21.2011 19.1274 20.2998 16.1664 19.9817C12.4536 19.5828 8.9025 20.1739 5.55958 21.8911C4.52278 22.4237 3.61979 23.1713 2.62598 23.7737C2.38761 23.9181 2.14257 24.0514 1.84798 24.2199C1.39743 23.4314 0.961522 22.6878 0.546798 21.9325C0.391279 21.6492 0.658762 21.554 0.832734 21.4458C2.01952 20.7083 3.16822 19.9181 4.22372 18.9961C8.45454 15.3005 11.138 10.6956 12.2197 5.15505C12.4917 3.76215 12.6654 2.35457 12.6199 0.931412C12.6056 0.483475 12.7717 0.343913 13.1986 0.363974C13.7941 0.391955 14.3929 0.391421 14.9884 0.363763C15.4128 0.344055 15.5757 0.480865 15.5724 0.929059C15.5479 4.21498 16.2573 7.34779 17.5576 10.3524C18.8886 13.4277 20.7975 16.0887 23.2487 18.4038ZM12.1438 13.7656C11.4861 14.9687 10.7257 16.1079 9.95718 17.2689C12.7336 16.8119 15.4705 16.8445 18.2363 17.263C16.5135 14.8554 15.1379 12.3065 14.0883 9.44748C13.5286 10.9932 12.8916 12.3648 12.1438 13.7656Z" fill="black"/>
<path d="M22.1382 28.8501C19.5823 27.6186 16.9087 27.0371 14.127 27.0361C11.0154 27.035 8.05055 27.7254 5.30125 29.2335C4.96531 29.4178 4.78223 29.4047 4.59846 29.0481C4.31628 28.5007 4.01404 27.9606 3.6778 27.4456C3.43672 27.0763 3.48812 26.8784 3.87645 26.67C5.59813 25.746 7.41106 25.0765 9.31157 24.6493C11.1293 24.2407 12.9726 24.0643 14.8338 24.1392C18.1919 24.2744 21.3714 25.0889 24.3386 26.7064C24.6773 26.891 24.7539 27.049 24.5268 27.3956C24.1715 27.9379 23.856 28.5086 23.5524 29.0827C23.3869 29.3956 23.2108 29.4346 22.9231 29.2542C22.6851 29.1049 22.4227 28.9949 22.1382 28.8501Z" fill="black"/>
<path d="M38.8035 17.748C38.8034 15.0252 38.8151 12.3524 38.7928 9.6799C38.7886 9.17771 38.9326 9.00961 39.4372 9.0123C42.6699 9.02954 45.9027 9.01929 49.1355 9.02142C49.7369 9.02182 49.7779 9.07105 49.78 9.68452C49.7833 10.6559 49.7833 10.6565 48.8058 10.6563C46.3191 10.656 43.8323 10.6673 41.3457 10.644C40.857 10.6394 40.7246 10.7991 40.7362 11.2737C40.7658 12.4923 40.7691 13.7128 40.7363 14.9313C40.7233 15.413 40.8961 15.5181 41.3368 15.5148C43.724 15.497 46.1115 15.5187 48.4985 15.4959C48.9868 15.4912 49.1695 15.6555 49.1046 16.1271C49.1023 16.1435 49.1045 16.1605 49.1046 16.1772C49.1106 17.0599 49.1106 17.0611 48.2496 17.0612C45.9453 17.0617 43.6408 17.0699 41.3365 17.0529C40.894 17.0497 40.7247 17.169 40.7349 17.6444C40.7643 19.0135 40.7665 20.3841 40.7353 21.7531C40.7243 22.2364 40.8997 22.3376 41.3378 22.3348C43.9405 22.3182 46.5434 22.326 49.1462 22.3271C49.8026 22.3274 49.8028 22.33 49.806 22.9892C49.8067 23.1228 49.7924 23.2581 49.8082 23.3898C49.8562 23.7901 49.6798 23.9054 49.2947 23.904C45.9791 23.8926 42.6634 23.8906 39.3478 23.906C38.8925 23.9082 38.7911 23.7267 38.7949 23.3104C38.8116 21.4731 38.803 19.6355 38.8035 17.748Z" fill="black"/>
<path d="M77.8343 24.1969C74.9639 23.7403 73.6091 21.6021 73.4316 18.8938C73.3453 17.5758 73.4952 16.2922 74.1061 15.0959C74.7825 13.7716 75.8339 12.916 77.2714 12.5653C78.6595 12.2266 80.0411 12.2339 81.3501 12.8655C83.2272 13.7711 84.015 15.4159 84.1115 17.4026C84.1906 19.0306 84.3224 18.7573 82.8142 18.7678C80.4931 18.7838 78.1718 18.7702 75.8506 18.7707C75.2778 18.7708 75.21 18.8524 75.3066 19.4084C75.338 19.5891 75.3688 19.77 75.4067 19.9494C75.8493 22.0468 77.2394 22.968 79.5226 22.7792C80.8804 22.6669 81.8785 22.0474 82.3533 20.7068C82.3987 20.5783 82.4428 20.4401 82.6024 20.4294C83.0926 20.3964 83.5859 20.3283 84.1145 20.4883C83.9222 21.8417 83.265 22.8521 82.1178 23.5093C80.7975 24.2658 79.3596 24.396 77.8343 24.1969ZM79.7155 13.8739C79.2032 13.8185 78.6906 13.8242 78.1785 13.8723C76.5095 14.0292 75.1756 15.666 75.4048 17.2735C75.4349 17.2853 75.4651 17.3076 75.4952 17.3076C77.6306 17.3122 79.766 17.3108 81.9013 17.3219C82.2633 17.3238 82.2937 17.13 82.2813 16.841C82.2149 15.3 81.3676 14.2833 79.7155 13.8739Z" fill="black"/>
<path d="M92.9146 15.7003C93.1628 16.7076 93.6596 17.0536 94.9483 17.2167C95.9986 17.3496 97.0578 17.4478 98.0811 17.7373C99.2545 18.0693 100.18 18.7123 100.409 20.0049C100.632 21.2594 100.494 22.4485 99.4305 23.3317C98.6096 24.0137 97.6066 24.1815 96.5938 24.2638C95.5285 24.3504 94.4745 24.2368 93.4555 23.8934C91.9818 23.3967 91.1282 22.3588 90.8625 20.8244C90.8259 20.6135 90.801 20.3953 90.8915 20.1589C91.3414 20.0744 91.8034 20.1275 92.2623 20.1196C92.4322 20.1167 92.5547 20.1919 92.5747 20.3734C92.7808 22.238 94.3314 22.7821 95.9176 22.8157C96.359 22.8251 96.8111 22.7524 97.2442 22.654C98.1783 22.4417 98.6412 21.8712 98.6649 20.9777C98.6883 20.0935 98.2494 19.521 97.2925 19.2679C96.2979 19.0047 95.2683 18.939 94.2551 18.7808C93.1625 18.6102 92.131 18.3143 91.5144 17.2848C90.7643 16.0325 90.8749 13.7237 92.9711 12.829C94.7163 12.0841 96.4977 12.1112 98.2328 12.8857C99.3184 13.3703 99.9548 14.2579 100.214 15.4256C100.297 15.7965 100.233 16.0215 99.7952 15.9811C99.6965 15.972 99.5952 15.9693 99.4971 15.9807C98.8569 16.0551 98.4494 15.9422 98.1942 15.1842C97.8351 14.1172 96.8088 13.8881 95.8014 13.7886C95.2692 13.7361 94.7392 13.8131 94.2285 13.9596C93.3215 14.22 92.9655 14.697 92.9146 15.7003Z" fill="black"/>
<path d="M62.309 9.74854C61.762 9.74822 61.2646 9.75598 60.7676 9.74447C60.477 9.73774 60.3446 9.84357 60.3499 10.1517C60.3622 10.8696 60.3633 11.588 60.3502 12.3059C60.3445 12.6208 60.4864 12.7085 60.7727 12.705C61.5681 12.6952 62.3644 12.7207 63.1591 12.6952C63.5868 12.6815 63.7456 12.8218 63.7411 13.2659C63.7312 14.2289 63.7513 14.2289 62.7948 14.2288C62.2313 14.2288 61.6668 14.2497 61.1045 14.2235C60.6446 14.2021 60.5068 14.3911 60.5093 14.8412C60.5249 17.58 60.5176 20.3189 60.5181 23.0578C60.5183 23.8974 60.5184 23.9025 59.6687 23.8959C58.5325 23.887 58.6222 24.0425 58.621 22.8579C58.6183 20.2193 58.6185 17.5806 58.6173 14.9419C58.617 14.2303 58.6168 14.2302 57.8892 14.2291C57.7566 14.2289 57.624 14.2305 57.4914 14.2295C56.7981 14.2238 56.7684 14.1785 56.7958 13.4823C56.8061 13.2181 56.9115 13.0813 57.1525 13.0238C57.2491 13.0007 57.3445 12.9722 57.4404 12.9463C58.6143 12.6302 58.6142 12.6303 58.6168 11.383C58.6175 11.0991 58.6099 10.8147 58.6222 10.5313C58.6848 9.08884 59.3433 8.37822 60.7774 8.30669C61.8191 8.25473 62.8653 8.29882 63.9093 8.28539C64.2441 8.28108 64.3235 8.44142 64.3339 8.74512C64.3682 9.74905 64.377 9.74883 63.4029 9.74906C63.0548 9.74915 62.7068 9.74872 62.309 9.74854Z" fill="black"/>
<path d="M71.2327 14.2297C70.5064 14.2301 69.8262 14.2461 69.1471 14.2241C68.736 14.2108 68.6017 14.3664 68.6036 14.78C68.617 17.6031 68.5992 20.4263 68.62 23.2493C68.6237 23.7473 68.4932 23.9248 67.9801 23.907C66.57 23.858 66.7658 24.0816 66.7605 22.6844C66.7507 20.0784 66.7448 17.4723 66.7677 14.8665C66.7722 14.3505 66.6049 14.1625 66.1101 14.2264C65.9307 14.2495 65.7449 14.2415 65.5637 14.2273C65.2864 14.2056 64.92 14.3219 64.8966 13.8477C64.8761 13.4325 64.8753 13.0946 65.4394 12.9698C66.7634 12.6769 66.7558 12.6424 66.7557 11.2837C66.7557 11.0498 66.7547 10.8159 66.7558 10.582C66.7625 9.16308 67.4427 8.38705 68.8544 8.30979C69.929 8.25098 71.009 8.29559 72.0866 8.28738C72.3633 8.28528 72.4784 8.41898 72.4751 8.68333C72.4749 8.70001 72.4756 8.71674 72.4767 8.7334C72.5441 9.7445 72.5403 9.74909 71.5491 9.749C70.687 9.74892 69.8247 9.75845 68.9629 9.74174C68.6178 9.73504 68.4912 9.86224 68.5009 10.2094C68.5194 10.8771 68.5225 11.5462 68.5015 12.2137C68.49 12.5812 68.6125 12.7186 68.9858 12.7085C69.7811 12.6869 70.5775 12.7147 71.3729 12.6974C71.7407 12.6894 71.8932 12.8377 71.8698 13.1985C71.8611 13.3316 71.857 13.4667 71.8695 13.5991C71.9112 14.04 71.7352 14.2657 71.2327 14.2297Z" fill="black"/>
<path d="M53.9462 10.9709C53.6655 10.9712 53.4339 10.972 53.2023 10.9714C52.4504 10.9694 52.4436 10.9691 52.4498 10.2349C52.4612 8.89857 52.2815 9.02255 53.6886 9.0226C54.9261 9.02265 54.8565 8.87635 54.8582 10.1052C54.8593 10.9692 54.8574 10.9692 53.9462 10.9709Z" fill="black"/>
<path d="M88.5064 9.52825C88.5067 14.117 88.5072 18.656 88.5068 23.1951C88.5068 23.8949 88.5049 23.9044 87.8301 23.8962C86.4614 23.8797 86.6567 24.0876 86.6542 22.701C86.6461 18.1453 86.651 13.5896 86.6517 9.03393C86.6519 8.28845 86.6538 8.2799 87.373 8.28961C88.6701 8.30713 88.4895 8.08627 88.5064 9.52825Z" fill="black"/>
<path d="M52.7228 21.0566C52.7228 18.4498 52.7362 15.893 52.7115 13.3366C52.7066 12.8198 52.8706 12.6762 53.3649 12.6936C54.7771 12.7434 54.5726 12.5076 54.5771 13.9185C54.587 17.0098 54.5801 20.1012 54.5793 23.1926C54.5791 23.8951 54.5777 23.8951 53.9113 23.8975C52.7226 23.9019 52.7225 23.9019 52.7226 22.7109C52.7226 22.1762 52.7227 21.6415 52.7228 21.0566Z" fill="black"/>
</svg>

<svg width="101" height="30" fill="none" xmlns="http://www.w3.org/2000/svg"><path d="M23.249 18.404c1.252 1.128 2.547 2.139 3.974 2.971.558.325.552.334.222.907-.291.506-.598 1.003-.862 1.523-.185.365-.387.38-.699.17-.508-.346-1.049-.645-1.546-1.005-2.448-1.769-5.21-2.67-8.172-2.988-3.712-.4-7.264.192-10.606 1.91-1.037.532-1.94 1.28-2.934 1.882-.238.144-.483.277-.778.446-.45-.789-.886-1.532-1.301-2.287-.156-.284.112-.379.286-.487 1.187-.738 2.335-1.528 3.39-2.45 4.232-3.695 6.915-8.3 7.997-13.84.272-1.394.445-2.801.4-4.225-.014-.448.152-.587.579-.567.595.028 1.194.027 1.79 0 .424-.02.587.117.583.565-.024 3.286.685 6.419 1.986 9.423 1.33 3.076 3.24 5.737 5.69 8.052Zm-11.105-4.638c-.658 1.203-1.418 2.342-2.187 3.503 2.777-.457 5.513-.424 8.28-.006a32.516 32.516 0 0 1-4.149-7.816 32.401 32.401 0 0 1-1.944 4.319Z" fill="#000"/><path d="M22.138 28.85c-2.556-1.231-5.23-1.813-8.011-1.814-3.112-.001-6.076.69-8.826 2.197-.336.185-.519.172-.703-.185a18.08 18.08 0 0 0-.92-1.602c-.241-.37-.19-.568.198-.776a21.327 21.327 0 0 1 5.436-2.02 21.21 21.21 0 0 1 5.522-.51c3.358.134 6.537.949 9.505 2.566.338.185.415.343.188.69-.355.542-.671 1.113-.975 1.687-.165.313-.341.352-.629.171-.238-.15-.5-.26-.785-.404ZM38.803 17.748c0-2.723.012-5.396-.01-8.068-.004-.502.14-.67.644-.668 3.233.018 6.466.007 9.699.01.6 0 .642.049.644.663.003.97.003.971-.974.971-2.487 0-4.974.011-7.46-.012-.489-.005-.621.155-.61.63.03 1.218.033 2.439 0 3.657-.013.482.16.587.6.584 2.388-.018 4.776.004 7.163-.02.488-.004.67.16.606.632-.003.017 0 .034 0 .05.006.883.006.884-.855.884-2.305 0-4.61.009-6.913-.008-.443-.003-.612.116-.602.591.03 1.37.032 2.74 0 4.11-.01.482.165.584.603.58 2.602-.016 5.205-.008 7.808-.007.657 0 .657.003.66.662 0 .134-.014.27.002.4.048.401-.128.516-.513.515-3.316-.011-6.632-.013-9.947.002-.456.002-.557-.18-.553-.596.017-1.837.008-3.674.008-5.562ZM77.834 24.197c-2.87-.457-4.225-2.595-4.402-5.303-.087-1.318.063-2.602.674-3.798.677-1.324 1.728-2.18 3.165-2.53 1.388-.34 2.77-.332 4.08.3 1.876.905 2.664 2.55 2.76 4.537.08 1.628.211 1.354-1.297 1.365-2.32.016-4.642.002-6.963.003-.573 0-.641.081-.544.637.031.181.062.362.1.541.442 2.098 1.832 3.019 4.116 2.83 1.357-.112 2.356-.732 2.83-2.072.046-.129.09-.267.25-.278.49-.033.983-.1 1.512.06-.193 1.353-.85 2.363-1.997 3.02-1.32.757-2.758.887-4.284.688Zm1.882-10.323a7.628 7.628 0 0 0-1.537-.002c-1.67.157-3.003 1.794-2.774 3.401.03.012.06.035.09.035 2.136.004 4.271.003 6.406.014.362.002.393-.192.38-.481-.066-1.541-.913-2.558-2.566-2.967ZM92.915 15.7c.248 1.008.745 1.354 2.033 1.517 1.05.133 2.11.23 3.133.52 1.173.332 2.099.975 2.328 2.268.223 1.254.085 2.444-.979 3.327-.82.682-1.823.85-2.836.932a7.778 7.778 0 0 1-3.138-.37c-1.474-.497-2.328-1.535-2.594-3.07-.036-.21-.061-.429.03-.665.45-.085.911-.031 1.37-.04.17-.002.293.073.313.254.206 1.865 1.756 2.41 3.343 2.443.441.01.893-.064 1.326-.162.934-.212 1.397-.783 1.42-1.676.024-.885-.415-1.457-1.371-1.71-.995-.263-2.025-.329-3.038-.487-1.093-.17-2.124-.467-2.74-1.496-.75-1.253-.64-3.561 1.456-4.456 1.745-.745 3.527-.718 5.262.057 1.085.484 1.722 1.372 1.981 2.54.083.37.019.595-.419.555-.099-.009-.2-.012-.298 0-.64.074-1.048-.039-1.303-.797-.359-1.067-1.385-1.296-2.393-1.395-.532-.053-1.062.024-1.573.17-.906.261-1.262.738-1.313 1.741ZM62.309 9.749c-.547 0-1.044.007-1.541-.005-.291-.006-.423.1-.418.408.012.718.013 1.436 0 2.154-.006.315.136.403.423.399.795-.01 1.591.016 2.386-.01.428-.014.587.127.582.57-.01.964.01.964-.946.964-.564 0-1.128.02-1.69-.005-.46-.022-.598.167-.596.617.016 2.739.009 5.478.01 8.217 0 .84 0 .845-.85.838-1.136-.009-1.047.146-1.048-1.038-.003-2.639-.003-5.277-.004-7.916 0-.712 0-.712-.728-.713-.132 0-.265.002-.398 0-.693-.005-.723-.05-.695-.747.01-.264.115-.4.357-.458.096-.023.191-.052.287-.078 1.174-.316 1.174-.316 1.177-1.563 0-.284-.007-.568.005-.852.063-1.442.721-2.153 2.155-2.224 1.042-.052 2.088-.008 3.132-.022.335-.004.414.156.425.46.034 1.004.043 1.004-.931 1.004h-1.094ZM71.233 14.23c-.727 0-1.407.016-2.086-.006-.411-.013-.545.142-.543.556.013 2.823-.005 5.646.016 8.47.004.497-.127.675-.64.657-1.41-.049-1.214.175-1.22-1.223-.01-2.606-.015-5.212.008-7.818.004-.515-.163-.704-.658-.64-.18.023-.365.015-.546.001-.278-.021-.644.095-.667-.38-.02-.415-.022-.752.542-.877 1.324-.293 1.317-.328 1.317-1.686v-.702c.007-1.419.687-2.195 2.098-2.272 1.075-.059 2.155-.014 3.233-.023.276-.002.391.132.388.396 0 .017 0 .034.002.05.067 1.011.063 1.016-.928 1.016-.862 0-1.724.01-2.586-.007-.345-.007-.472.12-.462.467.018.668.021 1.337 0 2.005-.011.367.111.505.485.495.795-.022 1.591.006 2.387-.012.368-.008.52.14.497.502a2.527 2.527 0 0 0 0 .4c.041.441-.135.667-.637.63ZM53.946 10.97c-.28.001-.512.002-.744.001-.752-.002-.758-.002-.752-.736.011-1.336-.169-1.212 1.239-1.212 1.237 0 1.167-.147 1.17 1.082 0 .864-.002.864-.913.866ZM88.506 9.528v13.667c0 .7-.001.71-.676.701-1.369-.016-1.173.192-1.176-1.195-.008-4.556-.003-9.111-.002-13.667 0-.746.002-.754.721-.744 1.297.017 1.117-.204 1.133 1.238ZM52.723 21.057c0-2.607.013-5.164-.011-7.72-.005-.517.159-.66.653-.643 1.412.05 1.208-.186 1.212 1.224.01 3.092.003 6.183.002 9.275 0 .702-.001.702-.668.704-1.188.005-1.189.005-1.188-1.186v-1.654Z" fill="#000"/></svg>
